contributed-vectors/myki.svg

<?xml version="1.0" encoding="UTF-8" standalone="no"?>
<svg
   xmlns:dc="http://purl.org/dc/elements/1.1/"
   xmlns:cc="http://creativecommons.org/ns#"
   xmlns:rdf="http://www.w3.org/1999/02/22-rdf-syntax-ns#"
   xmlns:svg="http://www.w3.org/2000/svg"
   xmlns="http://www.w3.org/2000/svg"
   xmlns:sodipodi="http://sodipodi.sourceforge.net/DTD/sodipodi-0.dtd"
   xmlns:inkscape="http://www.inkscape.org/namespaces/inkscape"
   width="100%"
   height="100%"
   viewBox="0 0 192 192"
   version="1.1"
   xml:space="preserve"
   style="fill-rule:evenodd;clip-rule:evenodd;stroke-linejoin:round;stroke-miterlimit:2;"
   id="svg15"
   sodipodi:docname="myki.svg"
   inkscape:version="1.0.1 (3bc2e813f5, 2020-09-07)"
   inkscape:export-filename="myki.png"
   inkscape:export-xdpi="96"
   inkscape:export-ydpi="96"><metadata
   id="metadata21"><rdf:RDF><cc:Work
       rdf:about=""><dc:format>image/svg+xml</dc:format><dc:type
         rdf:resource="http://purl.org/dc/dcmitype/StillImage" /></cc:Work></rdf:RDF></metadata><defs
   id="defs19" /><sodipodi:namedview
   pagecolor="#ffffff"
   bordercolor="#666666"
   borderopacity="1"
   objecttolerance="10"
   gridtolerance="10"
   guidetolerance="10"
   inkscape:pageopacity="0"
   inkscape:pageshadow="2"
   inkscape:window-width="1884"
   inkscape:window-height="1052"
   id="namedview17"
   showgrid="false"
   inkscape:zoom="3.4635417"
   inkscape:cx="96"
   inkscape:cy="96"
   inkscape:window-x="36"
   inkscape:window-y="0"
   inkscape:window-maximized="1"
   inkscape:current-layer="svg15" />
    <g
   transform="matrix(0.99346405,0,0,0.99346405,8.5751636,8.5751636)"
   id="g4"
   style="fill:#56595b;fill-opacity:1">
            <path
   d="m 164.5,21.5 c 0,-5.519 -4.481,-10 -10,-10 h -133 c -5.519,0 -10,4.481 -10,10 v 133 c 0,5.519 4.481,10 10,10 h 133 c 5.519,0 10,-4.481 10,-10 z"
   style="fill:#56595b;fill-opacity:1"
   id="path2" />
        </g><g
   transform="matrix(0.65517464,0,0,0.65517464,33.103235,29.673239)"
   id="g12">
            <g
   transform="translate(0,-2.02847)"
   id="g8">
                <path
   d="m 96.649,104.37 c -0.36,0.355 -0.938,0.355 -1.298,0 0,0 -11.801,-11.639 -11.801,-11.639 -0.267,-0.264 -0.349,-0.662 -0.206,-1.009 0.142,-0.347 0.48,-0.574 0.855,-0.574 5.963,0 17.639,0 23.602,0 0.375,0 0.713,0.227 0.855,0.574 0.143,0.347 0.061,0.745 -0.206,1.009 z"
   style="fill:#73ada4"
   id="path6" />
            </g>
            <path
   d="m 112.085,89.977 c -0.289,0.285 -0.451,0.674 -0.451,1.08 0,2.558 0,12.103 0,14.65 0,0.402 -0.16,0.788 -0.444,1.072 -2.095,2.095 -11.012,11.011 -14.118,14.118 -0.284,0.284 -0.67,0.444 -1.072,0.444 -0.402,0 -0.788,-0.16 -1.072,-0.444 -3.106,-3.107 -12.023,-12.023 -14.118,-14.118 -0.284,-0.284 -0.444,-0.67 -0.444,-1.072 0,-2.547 0,-12.092 0,-14.65 0,-0.406 -0.162,-0.795 -0.451,-1.08 C 76.767,86.872 58.02,68.384 51.081,61.54 50.646,61.111 49.995,60.985 49.431,61.221 48.867,61.457 48.5,62.009 48.5,62.62 c 0,8.153 0,27.516 0,31.247 0,0.402 0.16,0.788 0.444,1.072 4.353,4.353 39.379,39.378 45.984,45.984 0.284,0.284 0.67,0.444 1.072,0.444 0.402,0 0.788,-0.16 1.072,-0.444 6.605,-6.606 41.631,-41.631 45.984,-45.984 0.284,-0.284 0.444,-0.67 0.444,-1.072 0,-3.731 0,-23.094 0,-31.247 0,-0.611 -0.367,-1.163 -0.931,-1.399 -0.564,-0.236 -1.215,-0.11 -1.65,0.319 -6.939,6.844 -25.686,25.332 -28.834,28.437 z"
   style="fill:#73ada4"
   id="path10" />
        </g>
<style
   type="text/css"
   id="style853">
	.st0{fill:#FFFFFF;}
</style></svg>

<?xml version="1.0" encoding="UTF-8" standalone="no"?>
<!DOCTYPE svg PUBLIC "-//W3C//DTD SVG 1.1//EN" "http://www.w3.org/Graphics/SVG/1.1/DTD/svg11.dtd">
<svg width="100%" height="100%" viewBox="0 0 192 192" version="1.1" xmlns="http://www.w3.org/2000/svg" xmlns:xlink="http://www.w3.org/1999/xlink" xml:space="preserve" xmlns:serif="http://www.serif.com/" style="fill-rule:evenodd;clip-rule:evenodd;stroke-linejoin:round;stroke-miterlimit:2;">
    <g id="Layer1">
        <g transform="matrix(1,0,0,1,8,8)">
            <path d="M164.5,21.5C164.5,15.981 160.019,11.5 154.5,11.5L21.5,11.5C15.981,11.5 11.5,15.981 11.5,21.5L11.5,154.5C11.5,160.019 15.981,164.5 21.5,164.5L154.5,164.5C160.019,164.5 164.5,160.019 164.5,154.5L164.5,21.5Z" style="fill:rgb(74,74,74);"/>
        </g>
        <g transform="matrix(0.659485,0,0,0.659485,32.6894,29.7252)">
            <g transform="matrix(1,0,0,1,-1.42109e-14,-2.02847)">
                <path d="M96.649,104.37C96.289,104.725 95.711,104.725 95.351,104.37C95.351,104.37 83.55,92.731 83.55,92.731C83.283,92.467 83.201,92.069 83.344,91.722C83.486,91.375 83.824,91.148 84.199,91.148C90.162,91.148 101.838,91.148 107.801,91.148C108.176,91.148 108.514,91.375 108.656,91.722C108.799,92.069 108.717,92.467 108.45,92.731L96.649,104.37Z" style="fill:rgb(115,173,164);"/>
            </g>
            <path d="M112.085,89.977C111.796,90.262 111.634,90.651 111.634,91.057C111.634,93.615 111.634,103.16 111.634,105.707C111.634,106.109 111.474,106.495 111.19,106.779C109.095,108.874 100.178,117.79 97.072,120.897C96.788,121.181 96.402,121.341 96,121.341C95.598,121.341 95.212,121.181 94.928,120.897C91.822,117.79 82.905,108.874 80.81,106.779C80.526,106.495 80.366,106.109 80.366,105.707C80.366,103.16 80.366,93.615 80.366,91.057C80.366,90.651 80.204,90.262 79.915,89.977C76.767,86.872 58.02,68.384 51.081,61.54C50.646,61.111 49.995,60.985 49.431,61.221C48.867,61.457 48.5,62.009 48.5,62.62C48.5,70.773 48.5,90.136 48.5,93.867C48.5,94.269 48.66,94.655 48.944,94.939C53.297,99.292 88.323,134.317 94.928,140.923C95.212,141.207 95.598,141.367 96,141.367C96.402,141.367 96.788,141.207 97.072,140.923C103.677,134.317 138.703,99.292 143.056,94.939C143.34,94.655 143.5,94.269 143.5,93.867C143.5,90.136 143.5,70.773 143.5,62.62C143.5,62.009 143.133,61.457 142.569,61.221C142.005,60.985 141.354,61.111 140.919,61.54C133.98,68.384 115.233,86.872 112.085,89.977Z" style="fill:rgb(115,173,164);"/>
        </g>
    </g>
</svg>
